build/img/sprites/IdentificationBadge.svg

<svg width="54" height="54" viewBox="0 0 54 54" fill="none" xmlns="http://www.w3.org/2000/svg">
<path d="M15.8604 41.85C16.0377 41.9833 16.2396 42.0803 16.4545 42.1355C16.6694 42.1907 16.8931 42.2029 17.1127 42.1716C17.3323 42.1402 17.5436 42.0659 17.7345 41.9528C17.9253 41.8397 18.092 41.6901 18.225 41.5125C19.2467 40.1502 20.5716 39.0445 22.0946 38.283C23.6177 37.5215 25.2972 37.125 27 37.125C28.7028 37.125 30.3823 37.5215 31.9054 38.283C33.4284 39.0445 34.7533 40.1502 35.775 41.5125C35.908 41.6898 36.0745 41.8391 36.2652 41.952C36.4559 42.065 36.667 42.1392 36.8864 42.1705C37.1057 42.2019 37.3291 42.1897 37.5438 42.1347C37.7585 42.0797 37.9602 41.983 38.1375 41.85C38.3148 41.717 38.4641 41.5505 38.577 41.3598C38.69 41.1691 38.7642 40.958 38.7955 40.7387C38.8269 40.5193 38.8147 40.2959 38.7597 40.0812C38.7047 39.8665 38.608 39.6648 38.475 39.4875C36.9807 37.4841 34.9882 35.9068 32.6953 34.9123C33.9518 33.7651 34.8322 32.2648 35.2208 30.6083C35.6094 28.9518 35.4882 27.2165 34.8729 25.6302C34.2577 24.0439 33.1772 22.6806 31.7734 21.7193C30.3695 20.758 28.7078 20.2436 27.0063 20.2436C25.3049 20.2436 23.6432 20.758 22.2393 21.7193C20.8354 22.6806 19.755 24.0439 19.1397 25.6302C18.5245 27.2165 18.4032 28.9518 18.7919 30.6083C19.1805 32.2648 20.0608 33.7651 21.3173 34.9123C19.0199 35.9049 17.0227 37.4824 15.525 39.4875C15.2562 39.8453 15.1406 40.2952 15.2035 40.7382C15.2664 41.1812 15.5027 41.5812 15.8604 41.85ZM27 23.625C28.0013 23.625 28.98 23.9219 29.8126 24.4782C30.6451 25.0345 31.294 25.8251 31.6771 26.7502C32.0603 27.6752 32.1606 28.6931 31.9652 29.6751C31.7699 30.6572 31.2877 31.5592 30.5797 32.2672C29.8717 32.9752 28.9697 33.4574 27.9876 33.6527C27.0056 33.8481 25.9877 33.7478 25.0627 33.3646C24.1376 32.9815 23.347 32.3326 22.7907 31.5001C22.2344 30.6675 21.9375 29.6888 21.9375 28.6875C21.9375 27.3448 22.4709 26.0572 23.4203 25.1078C24.3697 24.1584 25.6573 23.625 27 23.625ZM42.1875 5.0625H11.8125C10.9174 5.0625 10.0589 5.41808 9.42601 6.05101C8.79308 6.68395 8.4375 7.54239 8.4375 8.4375V45.5625C8.4375 46.4576 8.79308 47.316 9.42601 47.949C10.0589 48.5819 10.9174 48.9375 11.8125 48.9375H42.1875C43.0826 48.9375 43.941 48.5819 44.574 47.949C45.2069 47.316 45.5625 46.4576 45.5625 45.5625V8.4375C45.5625 7.54239 45.2069 6.68395 44.574 6.05101C43.941 5.41808 43.0826 5.0625 42.1875 5.0625ZM42.1875 45.5625H11.8125V8.4375H42.1875V45.5625ZM18.5625 13.5C18.5625 13.0524 18.7403 12.6232 19.0568 12.3068C19.3732 11.9903 19.8024 11.8125 20.25 11.8125H33.75C34.1976 11.8125 34.6268 11.9903 34.9432 12.3068C35.2597 12.6232 35.4375 13.0524 35.4375 13.5C35.4375 13.9476 35.2597 14.3768 34.9432 14.6932C34.6268 15.0097 34.1976 15.1875 33.75 15.1875H20.25C19.8024 15.1875 19.3732 15.0097 19.0568 14.6932C18.7403 14.3768 18.5625 13.9476 18.5625 13.5Z" fill="#78213A"/>
</svg>

<svg width="54" height="54" viewBox="0 0 54 54" fill="none" xmlns="http://www.w3.org/2000/svg"><path d="M15.86 41.85a1.687 1.687 0 002.365-.337 10.969 10.969 0 0117.55 0 1.687 1.687 0 002.7-2.026 14.318 14.318 0 00-5.78-4.575 8.438 8.438 0 10-11.378 0 14.318 14.318 0 00-5.792 4.575 1.687 1.687 0 00.335 2.363zM27 23.625a5.063 5.063 0 110 10.125 5.063 5.063 0 010-10.125zM42.188 5.062H11.811a3.375 3.375 0 00-3.374 3.375v37.126a3.375 3.375 0 003.374 3.374h30.376a3.375 3.375 0 003.374-3.374V8.437a3.375 3.375 0 00-3.374-3.374zm0 40.5H11.811V8.438h30.376v37.124zM18.561 13.5a1.687 1.687 0 011.688-1.688h13.5a1.687 1.687 0 110 3.376h-13.5a1.687 1.687 0 01-1.688-1.688z" fill="#78213A"/></svg>
